X: 80
T:Miss Baker's Hornpipe. JBi.79
M:C
L:1/8
Q:180
S:James Biggins MS,Leeds,1779
R:Hornpipe
O:England
A:Yorkshire
N:A well known tune, so doesn't need editing..CGP..
Z:vmp.Chris Partington
K:G
"No Key or Time Sig in MS, otherwise as written"\
d2cBG2G2|AG FGABc3|BA BcdB gfedB2|G2G2:|!
efgd fa|fbag|fdfa fbag|fd fa gbag|f2d2-d2ef|!
gfed cBAG|efed c2BA|BcdB gfed|B2G2-G2||
